svgs/1F61C.svg

<svg xmlns="http://www.w3.org/2000/svg" xmlns:xlink="http://www.w3.org/1999/xlink" preserveAspectRatio="none" viewBox="0 0 72 72"><defs><path id="a" fill="#FCC21B" d="M36 5.35Q13.85 5.35 5.2 26 .4 37.35.4 52.55q0 5.85 10.45 10Q21.25 66.7 36 66.7q14.7 0 25.15-4.15 10.4-4.15 10.4-10 0-15.2-4.75-26.55Q58.1 5.35 36 5.35z"/><path id="b" fill="#2F2F2F" d="M55.15 46.15q.95-3.3-.7-4.4-1.1-.75-2.85-.6-.2.05-3 .6-5.7 1.15-12.4 1.15-6.75 0-12.4-1.15-2.8-.55-3-.6-1.75-.15-2.9.6-1.6 1.1-.65 4.4.95 3.3 3.55 6.05 2.4 2.45 5.4 4 4.55 2.4 10 2.4t10-2.4q3-1.55 5.35-4 2.65-2.75 3.6-6.05z"/><path id="c" fill="#D7598B" d="M36 47.65q-5.3 0-10.45-.8.6.7 2.3 9.75.2 1.05.4 1.95.8 2.3 1.95 3.65 1 1.2 2.3 1.6 1.45.5 3.5.5t3.5-.5q1.3-.4 2.3-1.6 1.15-1.35 1.95-3.65.2-.9.4-1.95 1.7-9.05 2.3-9.75-5.15.8-10.45.8v10.5-10.5z"/><path id="e" fill="#FFF" d="M97.7 42.4q-3.95-5.35-10.35-6.05-6.4-.7-11.45 3.6-5.05 4.35-5.8 11.2t3.2 12.15q4 5.35 10.35 6.05 6.4.7 11.45-3.6 5.05-4.35 5.8-11.2.8-6.8-3.2-12.15z"/><path id="f" fill="#2F2F2F" d="M90.7 48.45Q89 46.6 86.5 46.5q-2.5-.2-4.4 1.45-1.9 1.65-2.05 4.15-.2 2.45 1.5 4.35 1.65 1.85 4.15 2 2.5.15 4.4-1.5 1.9-1.65 2.1-4.15.15-2.5-1.5-4.35z"/><path id="g" fill="#2F2F2F" d="M17.15 33.75q.4-.8 1.2-1.6 1.65-1.5 3.95-1.7 2.3-.2 4.15 1 1 .65 1.5 1.35.5.7 1.4.6.4 0 .75-.25.5-.4.65-1 .05-.6-.3-1.15-.8-1.1-2.2-2-2.75-1.9-6.2-1.6-3.45.3-5.9 2.65-1.2 1.15-1.8 2.35-.25.6-.05 1.15.2.6.8.9.55.25 1.15.05.6-.2.9-.75z"/><path id="d" fill="none" stroke="#2F2F2F" stroke-linecap="round" stroke-linejoin="round" stroke-width="2" d="M36 47.65v10.5"/></defs><use xlink:href="#a"/><use xlink:href="#b"/><g><g><use xlink:href="#c"/><use xlink:href="#d"/></g><use transform="matrix(-.56247 0 0 .56247 97.7 .1)" xlink:href="#e"/><use transform="matrix(-.64214 0 0 .64214 104.9 -4.05)" xlink:href="#f"/><use transform="rotate(5 34.982 26.009)" xlink:href="#g"/></g></svg>

<svg xmlns="http://www.w3.org/2000/svg" version="1.1" xmlns:xlink="http://www.w3.org/1999/xlink" preserveAspectRatio="none" x="0px" y="0px" width="72px" height="72px" viewBox="0 0 72 72">
<defs>
<g id="Layer1_0_FILL">
<path fill="#FCC21B" stroke="none" d="
M 36 5.35
Q 13.85 5.35 5.2 26 0.4 37.35 0.4 52.55 0.4 58.4 10.85 62.55 21.25 66.7 36 66.7 50.7 66.7 61.15 62.55 71.55 58.4 71.55 52.55 71.55 37.35 66.8 26 58.1 5.35 36 5.35 Z"/>
</g>

<g id="Layer1_1_FILL">
<path fill="#2F2F2F" stroke="none" d="
M 55.15 46.15
Q 56.1 42.85 54.45 41.75 53.35 41 51.6 41.15 51.4 41.2 48.6 41.75 42.9 42.9 36.2 42.9 29.45 42.9 23.8 41.75 21 41.2 20.8 41.15 19.05 41 17.9 41.75 16.3 42.85 17.25 46.15 18.2 49.45 20.8 52.2 23.2 54.65 26.2 56.2 30.75 58.6 36.2 58.6 41.65 58.6 46.2 56.2 49.2 54.65 51.55 52.2 54.2 49.45 55.15 46.15 Z"/>
</g>

<g id="Layer0_0_FILL">
<path fill="#D7598B" stroke="none" d="
M 36 47.65
Q 30.7 47.65 25.55 46.85 26.15 47.55 27.85 56.6 28.05 57.65 28.25 58.55 29.05 60.85 30.2 62.2 31.2 63.4 32.5 63.8 33.95 64.3 36 64.3 38.05 64.3 39.5 63.8 40.8 63.4 41.8 62.2 42.95 60.85 43.75 58.55 43.95 57.65 44.15 56.6 45.85 47.55 46.45 46.85 41.3 47.65 36 47.65
L 36 58.15 36 47.65 Z"/>
</g>

<g id="Layer0_1_MEMBER_0_MEMBER_0_FILL">
<path fill="#FFFFFF" stroke="none" d="
M 97.7 42.4
Q 93.75 37.05 87.35 36.35 80.95 35.65 75.9 39.95 70.85 44.3 70.1 51.15 69.35 58 73.3 63.3 77.3 68.65 83.65 69.35 90.05 70.05 95.1 65.75 100.15 61.4 100.9 54.55 101.7 47.75 97.7 42.4 Z"/>
</g>

<g id="Layer0_1_MEMBER_0_MEMBER_1_FILL">
<path fill="#2F2F2F" stroke="none" d="
M 90.7 48.45
Q 89 46.6 86.5 46.5 84 46.3 82.1 47.95 80.2 49.6 80.05 52.1 79.85 54.55 81.55 56.45 83.2 58.3 85.7 58.45 88.2 58.6 90.1 56.95 92 55.3 92.2 52.8 92.35 50.3 90.7 48.45 Z"/>
</g>

<g id="Layer0_1_MEMBER_1_FILL">
<path fill="#2F2F2F" stroke="none" d="
M 17.15 33.75
Q 17.55 32.95 18.35 32.15 20 30.65 22.3 30.45 24.6 30.25 26.45 31.45 27.45 32.1 27.95 32.8 28.45 33.5 29.35 33.4 29.75 33.4 30.1 33.15 30.6 32.75 30.75 32.15 30.8 31.55 30.45 31 29.65 29.9 28.25 29 25.5 27.1 22.05 27.4 18.6 27.7 16.15 30.05 14.95 31.2 14.35 32.4 14.1 33 14.3 33.55 14.5 34.15 15.1 34.45 15.65 34.7 16.25 34.5 16.85 34.3 17.15 33.75 Z"/>
</g>

<path id="Layer0_0_1_STROKES" stroke="#2F2F2F" stroke-width="2" stroke-linejoin="round" stroke-linecap="round" fill="none" d="
M 36 47.65
L 36 58.15"/>
</defs>

<g id="Layer_1">
<g transform="matrix( 1, 0, 0, 1, 0,0) ">
<use xlink:href="#Layer1_0_FILL"/>
</g>

<g transform="matrix( 1, 0, 0, 1, 0,0) ">
<use xlink:href="#Layer1_1_FILL"/>
</g>
</g>

<g id="Camada_3">
<g transform="matrix( 1, 0, 0, 1, 0,0) ">
<use xlink:href="#Layer0_0_FILL"/>

<use xlink:href="#Layer0_0_1_STROKES"/>
</g>

<g transform="matrix( -0.562469482421875, 0, 0, 0.562469482421875, 97.7,0.1) ">
<use xlink:href="#Layer0_1_MEMBER_0_MEMBER_0_FILL"/>
</g>

<g transform="matrix( -0.6421356201171875, 0, 0, 0.6421356201171875, 104.9,-4.05) ">
<use xlink:href="#Layer0_1_MEMBER_0_MEMBER_1_FILL"/>
</g>

<g transform="matrix( 0.9962005615234375, 0.087158203125, -0.087158203125, 0.9962005615234375, 2.4,-2.95) ">
<use xlink:href="#Layer0_1_MEMBER_1_FILL"/>
</g>
</g>
</svg>
